images/in-s-icon.svg

<svg width="24" height="24" viewBox="0 0 24 24" fill="none" xmlns="http://www.w3.org/2000/svg">
    <g clip-path="url(#clip0_8773_35731)">
        <path d="M21.1751 13.175C21.2265 12.8 21.2522 12.4125 21.2522 12C21.2522 11.6 21.2265 11.2 21.1622 10.825L23.7708 8.85C23.8832 8.75988 23.96 8.63462 23.9882 8.49559C24.0163 8.35655 23.994 8.21233 23.925 8.0875L21.4578 3.9375C21.3848 3.81232 21.2688 3.71615 21.1301 3.66586C20.9915 3.61557 20.8391 3.61438 20.6996 3.6625L17.6284 4.8625C16.9859 4.3875 16.3048 3.9875 15.5467 3.6875L15.0841 0.512503C15.0613 0.369416 14.9865 0.239013 14.8734 0.144974C14.7602 0.0509351 14.6161 -0.000501881 14.4672 3.69175e-06H9.53275C9.22435 3.69175e-06 8.98019 0.212503 8.92879 0.512503L8.46618 3.6875C7.70802 3.9875 7.0141 4.4 6.38444 4.8625L3.31323 3.6625C3.03053 3.5625 2.70927 3.6625 2.55507 3.9375L0.100673 8.0875C-0.0535302 8.35 -0.00212937 8.675 0.254876 8.85L2.86348 10.825C2.79922 11.2 2.74782 11.6125 2.74782 12C2.74782 12.3875 2.77352 12.8 2.83777 13.175L0.229175 15.15C0.116766 15.2401 0.0399599 15.3654 0.0118421 15.5044C-0.0162757 15.6435 0.00603483 15.7877 0.0749723 15.9125L2.54222 20.0625C2.69642 20.3375 3.01768 20.425 3.30038 20.3375L6.37159 19.1375C7.0141 19.6125 7.69517 20.0125 8.45333 20.3125L8.91594 23.4875C8.98019 23.7875 9.22435 24 9.53275 24H14.4672C14.7757 24 15.0327 23.7875 15.0712 23.4875L15.5338 20.3125C16.292 20.0125 16.9859 19.6125 17.6156 19.1375L20.6868 20.3375C20.9695 20.4375 21.2907 20.3375 21.4449 20.0625L23.9122 15.9125C24.0664 15.6375 24.0021 15.325 23.758 15.15L21.1751 13.175ZM12 16.5C9.45565 16.5 7.37391 14.475 7.37391 12C7.37391 9.525 9.45565 7.5 12 7.5C14.5443 7.5 16.6261 9.525 16.6261 12C16.6261 14.475 14.5443 16.5 12 16.5Z" fill="#D4E5FB"/>
        <path d="M2.31152 20.9473C2.31152 19.8427 3.20695 18.9473 4.31152 18.9473H16.3115C17.4161 18.9473 18.3115 19.8427 18.3115 20.9473C18.3115 21.4996 17.8638 21.9473 17.3115 21.9473H3.31152C2.75924 21.9473 2.31152 21.4996 2.31152 20.9473Z" fill="#2A7DEC"/>
        <path fill-rule="evenodd" clip-rule="evenodd" d="M9.52852 4.30273L2.9543 8.01861C2.04831 8.53069 1.73145 9.68185 2.24778 10.5855C2.81116 11.5714 4.1138 11.8357 5.01691 11.1474L10.1282 7.25156L9.57622 4.77954C9.54092 4.6212 9.52532 4.46118 9.52852 4.30273ZM5.31159 9.9471C5.31159 10.4994 4.86388 10.9471 4.31159 10.9471C3.75931 10.9471 3.31159 10.4994 3.31159 9.9471C3.31159 9.39481 3.75931 8.9471 4.31159 8.9471C4.86388 8.9471 5.31159 9.39481 5.31159 9.9471Z" fill="#2A7DEC"/>
        <path d="M12.1663 2.29291L10.8223 3.63696C10.5802 3.87898 10.4788 4.22796 10.5534 4.562L11.5583 9.06205C11.6189 9.33364 11.79 9.56768 12.0304 9.7079L15.4718 11.7153L16.2673 10.9199L14.257 8.05421C13.9781 7.65665 14.0252 7.11621 14.3686 6.77282L15.3022 5.83921C15.6456 5.49582 16.186 5.44877 16.5836 5.72765L19.4492 7.7379L20.2447 6.94241L18.2373 3.50101C18.097 3.26064 17.863 3.08957 17.5914 3.02892L13.0914 2.02405C12.7573 1.94946 12.4083 2.05089 12.1663 2.29291Z" fill="#2A7DEC"/>
        <path fill-rule="evenodd" clip-rule="evenodd" d="M2.81468 8.78074C1.9877 9.42291 1.84498 10.6171 2.49733 11.4361L7.31153 17.4799V17.9473H13.3115V16.9473C13.3115 15.6403 12.4757 14.5285 11.3093 14.1172L5.19501 8.84214C4.5174 8.25753 3.52154 8.23184 2.81468 8.78074ZM4.31183 10.9478C4.86412 10.9478 5.31183 10.5001 5.31183 9.94777C5.31183 9.39546 4.86412 8.94775 4.31183 8.94775C3.75955 8.94775 3.31183 9.39546 3.31183 9.94777C3.31183 10.5001 3.75955 10.9478 4.31183 10.9478Z" fill="#2A7DEC"/>
    </g>
    <defs>
        <clipPath id="clip0_8773_35731">
            <rect width="24" height="24" fill="white"/>
        </clipPath>
    </defs>
</svg>

<svg width="24" height="24" fill="none" xmlns="http://www.w3.org/2000/svg"><g clip-path="url(#a)"><path d="M21.175 13.175c.052-.375.077-.763.077-1.175 0-.4-.025-.8-.09-1.175l2.609-1.975a.598.598 0 0 0 .154-.762l-2.467-4.15a.625.625 0 0 0-.328-.272.646.646 0 0 0-.43-.003l-3.072 1.2a9.143 9.143 0 0 0-2.081-1.176L15.084.514a.602.602 0 0 0-.21-.368.633.633 0 0 0-.407-.145H9.533a.604.604 0 0 0-.604.513l-.463 3.175c-.758.3-1.452.712-2.082 1.174l-3.07-1.2a.621.621 0 0 0-.759.276L.101 8.088c-.155.262-.103.587.154.762l2.608 1.975A7.142 7.142 0 0 0 2.748 12c0 .387.026.8.09 1.175L.229 15.15a.598.598 0 0 0-.154.762l2.467 4.15c.154.275.476.363.758.275l3.072-1.2a9.142 9.142 0 0 0 2.081 1.175l.463 3.175c.064.3.308.513.617.513h4.934a.594.594 0 0 0 .604-.512l.463-3.175c.758-.3 1.452-.7 2.082-1.175l3.07 1.2c.284.1.605 0 .759-.276l2.467-4.15c.154-.275.09-.587-.154-.762l-2.583-1.975ZM12 16.5c-2.544 0-4.626-2.025-4.626-4.5S9.456 7.5 12 7.5c2.544 0 4.626 2.025 4.626 4.5S14.544 16.5 12 16.5Z" fill="#D4E5FB"/><path d="M2.312 20.947a2 2 0 0 1 2-2h12a2 2 0 0 1 2 2 1 1 0 0 1-1 1h-14a1 1 0 0 1-1-1Z" fill="#2A7DEC"/><path fill-rule="evenodd" clip-rule="evenodd" d="M9.529 4.303 2.954 8.019a1.878 1.878 0 1 0 2.063 3.128l5.111-3.895-.552-2.472a2.005 2.005 0 0 1-.047-.477ZM5.312 9.947a1 1 0 1 1-2 0 1 1 0 0 1 2 0Z" fill="#2A7DEC"/><path d="m12.166 2.293-1.344 1.344a1 1 0 0 0-.269.925l1.005 4.5a1 1 0 0 0 .472.646l3.442 2.007.795-.795-2.01-2.866a1 1 0 0 1 .112-1.281l.933-.934a1 1 0 0 1 1.282-.111l2.865 2.01.796-.796-2.008-3.441a1 1 0 0 0-.646-.472l-4.5-1.005a1 1 0 0 0-.925.269Z" fill="#2A7DEC"/><path fill-rule="evenodd" clip-rule="evenodd" d="M2.815 8.78a1.88 1.88 0 0 0-.318 2.656l4.815 6.044v.467h6v-1a3.001 3.001 0 0 0-2.003-2.83L5.195 8.842a1.88 1.88 0 0 0-2.38-.061Zm1.497 2.168a1 1 0 1 0 0-2 1 1 0 0 0 0 2Z" fill="#2A7DEC"/></g><defs><clipPath id="a"><path fill="#fff" d="M0 0h24v24H0z"/></clipPath></defs></svg>
